icon/gr/ascend.svg

<svg xmlns="http://www.w3.org/2000/svg" width="24" height="24"><path fill="none" stroke="#000" stroke-width="2" d="m2 8 6-6 6 6m-3 13h11m-11-4h8m-8-4h5M8 2v20"/></svg>

<svg xmlns="http://www.w3.org/2000/svg" viewBox="0 0 24 24" height="1em" width="1em">
  <path fill="none" stroke="#000" stroke-width="2" d="M2,8 L8,2 L14,8 M11,21 L22,21 M11,17 L19,17 M11,13 L16,13 M8,2 L8,22"/>
</svg>
